X: 730
T: Cherish the Ladies
R: jig
%S: s:6 b:48(4+4+4+4+8+8)
B: O'Neill's 1850 #730
O: Gillan
Z: transcribed by mvhplank
M: 6/8
L: 1/8
K: D
(3(A/B/c/) |!segno!\
dFF AFF | DFA AGF | BEE GEE | GBA GFE | \
dFF AFF | DFA AFA | Bcd efg | fdd d2 H:|
|:\
(3(A/B/c/) | dfd cec | dfd AGF | BEE GEE | GBA GFE | \
dfd cec | dfd AGF | Bcd efg | fdd d2 :|
|: A |\
dfd cec | dfd AGF | Bz E Gz E | GcB/A/ GFE | \
dGd cFc | dGd A2G | (A>Bc/d/) efg | fdd d2 :|
|: B |\
Add fdd | add fdd | (A/B/c)d gfg | ece gfe | \
agf bge | afd cBA | (3(f/g/a/) B2 AGF | GEF GFE :|
|:\
f2f afd | fed cde | g2g gfg | ece gfe | \
agf bge | afd cBA | fdB AGF | GEF GFE :|
|:\
DFA dAF | DFA BGE | DFA dAF | GEF GFE | \
DFA DGB | DFA d2e | fdB AGF | GEF  GF!segno!E :|
